X: 30705
T: Organdi
R: barndance
M: 4/4
K: Dmajor
F2 A2/d2/ c2 d2|E3 F G2 B2|A2 d2 c2 A2|B3 A A3 G|
F2 A2/d2/ c2 d2|E3 F G2 B2|A3 B c2/d2/ E2|F4 D4:|d6 B2|
G4 B3 d|c4 A3 B|A6 B2/d2/|E3 F G2 B2|
A3 B c2/d2/ E2|1 F6 D2|F2/G2/ A6:|2 F4 A4|D8||

